X: 628
T: Queen Caroline
P: Longways for as many as will
%R: reel
B: "The Compleat Country Dancing-Master" printed by John Walsh, London ca. 1740
S: 6: CCDM1 http://imslp.org/wiki/The_Compleat_Country_Dancing-Master_(Various) V.1 p.26 #53
Z: 2013 John Chambers <jc:trillian.mit.edu>
N: 2nd part has initial repeat but no final repeat. Corrected to agree with the dance instructions.
M: C|
L: 1/8
K: D
% - - - - - - - - - - - - - - - - - - - - - - - - -
DE |\
F4 A4 | d6 DE | FGAB A2GF | E6 A2 |\
Bcd2 c2B2 | A4 G4 | FEDE TE3D | D6 :|
f2 |\
e2d2 cde2 | A4 G4 | F2GF E2D2 | A6 e2 |\
BABc B2B2 | B4 Tc4 | d2cB TB3A | A6 G2 |
FEFG F2E2 | G4 F4 | B2A2 G2F2 | TE6 A2 |\
Bcd2 c2B2 | A4 G4 | FEDE TE3D | D6 |]
% - - - - - - - - - - - - - - - - - - - - - - - - -
%%text The first Strain twice, and the last but once. to be done with the Minuet Step.
%%begintext align
%% The 1st Cu. cast off behind the 2d Cu. and cross over
%% into the 3d Cu. Places .| Then cast up again and cross over
%% over the 2d Cu. into your own Places :| The 1st Wo. cast
%% off and go quite round the 2d Cu. into your own Place,
%% the 1st Man follow her, then he casts off, she following
%% him, and lead through the 2d Cu. Place.
%%endtext

%%sep 1 1 500
%%sep 1 1 500
